imagens/Plus.svg

<svg width="24" height="24" viewBox="0 0 24 24" fill="none" xmlns="http://www.w3.org/2000/svg">
<path opacity="0.2" d="M18.75 3.75H5.25C4.42157 3.75 3.75 4.42157 3.75 5.25V18.75C3.75 19.5784 4.42157 20.25 5.25 20.25H18.75C19.5784 20.25 20.25 19.5784 20.25 18.75V5.25C20.25 4.42157 19.5784 3.75 18.75 3.75Z" fill="#A18072"/>
<path d="M3.75 12H20.25" stroke="#A18072" stroke-width="2" stroke-linecap="round" stroke-linejoin="round"/>
<path d="M12 3.75V20.25" stroke="#A18072" stroke-width="2" stroke-linecap="round" stroke-linejoin="round"/>
</svg>

<svg xmlns="http://www.w3.org/2000/svg" width="24" height="24" fill="none"><path fill="#A18072" d="M18.75 3.75H5.25a1.5 1.5 0 0 0-1.5 1.5v13.5a1.5 1.5 0 0 0 1.5 1.5h13.5a1.5 1.5 0 0 0 1.5-1.5V5.25a1.5 1.5 0 0 0-1.5-1.5Z" opacity=".2"/><path stroke="#A18072" stroke-linecap="round" stroke-linejoin="round" stroke-width="2" d="M3.75 12h16.5M12 3.75v16.5"/></svg>
